packages/elvis-assets-icons/icons/svg/src/arrow_right_circle-color.svg

<svg width="24" height="24" viewBox="0 0 24 24" fill="none" xmlns="http://www.w3.org/2000/svg">
<path fill-rule="evenodd" clip-rule="evenodd" d="M13.3656 7.43439C13.0532 7.12197 12.5467 7.12197 12.2343 7.43439C11.9218 7.74681 11.9218 8.25334 12.2343 8.56576L14.8686 11.2001H7.19996C6.75814 11.2001 6.39996 11.5582 6.39996 12.0001C6.39996 12.4419 6.75814 12.8001 7.19996 12.8001H14.8686L12.2343 15.4344C11.9218 15.7468 11.9218 16.2533 12.2343 16.5658C12.5467 16.8782 13.0532 16.8782 13.3656 16.5658L17.3619 12.5695C17.3761 12.5555 17.3898 12.5409 17.4029 12.5258C17.4547 12.4666 17.4962 12.4016 17.5276 12.3331C17.574 12.2317 17.6 12.1189 17.6 12.0001C17.6 11.8816 17.5742 11.7692 17.528 11.668C17.4961 11.5981 17.4537 11.5318 17.4006 11.4716C17.3882 11.4575 17.3753 11.4439 17.362 11.4307L13.3656 7.43439Z" fill="black"/>
<path fill-rule="evenodd" clip-rule="evenodd" d="M12 22.4C17.7438 22.4 22.4 17.7438 22.4 12C22.4 6.25624 17.7438 1.6 12 1.6C6.25624 1.6 1.6 6.25624 1.6 12C1.6 17.7438 6.25624 22.4 12 22.4ZM24 12C24 18.6274 18.6274 24 12 24C5.37258 24 1.43766e-06 18.6274 8.58275e-07 12C2.78888e-07 5.37259 5.37258 3.53581e-06 12 2.95642e-06C18.6274 2.37703e-06 24 5.37258 24 12Z" fill="#29D305"/>
</svg>

<svg width="24" height="24" fill="none" xmlns="http://www.w3.org/2000/svg"><path fill-rule="evenodd" clip-rule="evenodd" d="M13.366 7.434a.8.8 0 10-1.132 1.132L14.87 11.2H7.2a.8.8 0 100 1.6h7.669l-2.635 2.634a.8.8 0 101.132 1.132l3.996-3.996a.77.77 0 00.166-.237.798.798 0 00-.166-.902l-3.996-3.997z" fill="#000"/><path fill-rule="evenodd" clip-rule="evenodd" d="M12 22.4c5.744 0 10.4-4.656 10.4-10.4 0-5.744-4.656-10.4-10.4-10.4C6.256 1.6 1.6 6.256 1.6 12c0 5.744 4.656 10.4 10.4 10.4zM24 12c0 6.627-5.373 12-12 12S0 18.627 0 12 5.373 0 12 0s12 5.373 12 12z" fill="#29D305"/></svg>
